svg/truck_driver_negative.svg

<svg width="48" height="48" viewBox="0 0 48 48" fill="none" xmlns="http://www.w3.org/2000/svg">
<path fill-rule="evenodd" clip-rule="evenodd" d="M0 0V47.9994H47.9994V0H0ZM23.9197 3.70115C24.4567 3.70105 24.8937 3.92845 24.8947 4.20895C24.8947 4.22025 24.8917 4.22875 24.8907 4.23625C26.3827 4.41404 27.7117 5.02834 28.7206 6.03112C29.6936 6.99861 30.3006 8.3356 30.4486 9.83968C30.4926 10.2839 30.4856 12.8888 30.4406 12.8888C30.4216 12.8888 30.3256 12.8408 30.1326 12.8028C29.3226 12.6078 28.0876 12.3388 26.6037 12.2518C25.7817 12.2038 23.4077 12.1598 22.6287 12.2068C20.8827 12.1938 18.6938 12.5938 17.8958 12.7908C17.7048 12.8508 17.6078 12.8868 17.5898 12.8868C17.5658 12.8868 17.5208 12.2288 17.5208 11.3159C17.5208 10.4089 17.5318 9.98998 17.5618 9.72838C17.7538 8.0891 18.4498 6.72112 19.5918 5.73823C20.5247 4.93444 21.6787 4.43144 22.9527 4.25385C22.9507 4.24105 22.9507 4.22605 22.9507 4.21085C22.9517 3.93055 23.3857 3.70355 23.9217 3.70305L23.9197 3.70115ZM23.9747 12.7048H23.9767C24.9377 12.7048 25.9057 12.7238 26.4797 12.7658C28.3466 12.9018 30.0356 13.2148 30.7676 13.5588C30.9366 13.6378 31.1046 13.7918 31.1776 13.9318C31.2036 13.9818 31.4176 14.7938 31.6536 15.7358C32.1276 17.6258 32.1306 17.6478 31.9706 17.9218C31.8136 18.1898 31.5796 18.3228 31.2696 18.3238C31.1726 18.3248 31.1016 18.3098 30.9836 18.2638C30.9976 19.7248 31.0146 21.1867 31.0246 22.6477C31.0246 24.7217 30.2266 26.7697 28.6636 27.7477C26.9257 28.8356 25.3147 29.9736 24.0547 29.9706C22.2147 29.9126 21.1777 29.0476 19.0878 27.7317C17.6108 26.8027 17.0958 24.7327 17.0958 22.6477V18.2268C16.9098 18.3008 16.7578 18.3408 16.6128 18.3178C16.2428 18.2638 15.9358 17.9108 15.9358 17.5408C15.9358 17.3518 16.7818 14.0288 16.8668 13.8828C16.9978 13.6578 17.2888 13.5038 17.9058 13.3278C18.8068 13.0718 20.0157 12.8838 21.5177 12.7678C22.0607 12.7238 23.0127 12.7048 23.9747 12.7048ZM23.9977 16.7418C23.4717 16.7418 22.9487 16.7488 22.6477 16.7708C20.7457 16.9088 18.9218 17.3488 17.6068 17.9648L17.6148 22.4607C17.6188 24.3457 18.1958 26.6687 19.5308 27.5097C21.4207 28.6996 22.3987 29.3976 24.0617 29.4446C25.2017 29.4486 26.9677 28.2286 28.4956 27.2007C29.9096 26.3167 30.5076 24.4297 30.5076 22.5547C30.4986 21.0887 30.4936 19.5648 30.4796 18.0998C29.0946 17.4468 27.2677 16.9068 25.3587 16.7708C25.0517 16.7488 24.5237 16.7418 23.9977 16.7418ZM21.0467 18.7148C21.4857 18.7148 21.8417 19.0708 21.8417 19.5098C21.8417 19.9487 21.4857 20.3047 21.0467 20.3047C20.6077 20.3047 20.2517 19.9487 20.2517 19.5098C20.2517 19.0708 20.6077 18.7148 21.0467 18.7148ZM27.0157 18.7148C27.4547 18.7148 27.8097 19.0708 27.8107 19.5098C27.8097 19.9487 27.4547 20.3047 27.0157 20.3047C26.5767 20.3047 26.2207 19.9487 26.2207 19.5098C26.2207 19.0708 26.5767 18.7148 27.0157 18.7148ZM23.9797 22.3847H24.0307C24.4287 22.3847 24.7507 22.4507 24.7477 22.5327C24.7457 22.6137 24.4257 22.6797 24.0307 22.6797C23.6367 22.6797 23.3157 22.6137 23.3137 22.5327C23.3097 22.4547 23.6017 22.3887 23.9797 22.3847ZM24.0157 24.9337H24.2107C25.7387 24.9337 26.9747 24.9787 26.9647 25.0347C26.9457 25.0897 25.7187 25.1347 24.2107 25.1347C22.7017 25.1347 21.4737 25.0897 21.4547 25.0347C21.4417 24.9817 22.5637 24.9367 24.0157 24.9337ZM18.7598 29.6576L21.8867 32.7866L22.8567 33.7556C23.0677 33.7436 23.2787 33.7366 23.4897 33.7336C23.5517 33.7336 23.6127 33.7426 23.6737 33.7436C24.0757 33.7506 24.4777 33.7726 24.8787 33.8106C24.9447 33.8166 25.0117 33.8146 25.0777 33.8216L29.2396 29.6596C29.4686 29.7236 29.6896 29.7986 29.9136 29.8686L25.8587 33.9296C26.2137 33.9866 26.5657 34.0556 26.9157 34.1366L30.7266 30.3236L30.7286 30.3256L30.8646 30.1876C33.6036 31.1656 36.0845 32.5206 39.2395 33.6166C41.7845 34.3676 41.7845 36.4835 41.7845 37.6365V42.9605V44.2984H38.6305H33.2146H28.0716H27.4937L30.4796 38.5245C30.3176 38.4225 30.1526 38.3235 29.9856 38.2285L26.8457 44.2984H26.2677H20.4447H19.8808L17.0568 38.1855C16.8878 38.2795 16.7218 38.3775 16.5588 38.4795L19.2458 44.2984H18.6798H14.2748H8.81829H6.21472V42.9605V37.6365C6.21472 36.4835 6.21462 34.3676 8.75969 33.6166C11.9139 32.5206 14.3928 31.1646 17.1308 30.1856L17.2658 30.3216L17.2678 30.3196L20.9037 33.9626C21.0087 33.9456 21.1137 33.9386 21.2187 33.9236C21.4867 33.8786 21.7557 33.8406 22.0247 33.8106L18.0858 29.8666C18.3098 29.7966 18.5308 29.7216 18.7598 29.6576ZM16.9978 30.7766L9.07799 34.0486C7.8863 34.4446 7.00611 35.2146 6.75972 36.7435L6.73042 43.7845H7.9882C7.7721 43.6225 7.6582 43.4735 7.57801 43.2575C7.09201 41.9485 8.3583 38.4125 9.66588 37.4255L10.2949 36.9525L12.8518 37.9705C14.9168 36.0156 17.4958 34.6666 20.2967 34.0736L16.9978 30.7766ZM30.9856 30.7826L27.5097 34.2676C30.0796 34.9616 32.4236 36.2985 34.3116 38.1495L37.0695 37.0525L37.6965 37.5245C39.0045 38.5115 40.2705 42.0485 39.7845 43.3565C39.7205 43.5285 39.6335 43.6585 39.5035 43.7845H41.2695L41.2655 37.1085C41.0755 35.8955 40.8195 34.7336 39.1385 34.1186C36.3845 33.1506 33.7036 31.8946 30.9856 30.7826ZM14.5288 33.3026C15.0298 33.2996 15.3388 33.5716 15.5878 34.1796C15.8438 34.8036 15.8318 34.8646 15.4018 35.1326C15.1498 35.2906 14.4628 35.7316 13.8748 36.1125C13.2018 36.5495 12.6718 36.7525 12.4448 36.6575C12.1188 36.5215 12.1428 36.3695 12.6988 35.0406C13.2688 33.6776 13.3568 33.5616 13.9588 33.3946C14.1728 33.3346 14.3618 33.3036 14.5288 33.3026ZM32.8336 33.4036C33.0006 33.4046 33.1896 33.4346 33.4036 33.4936C34.0066 33.6606 34.0936 33.7766 34.6636 35.1406C35.2196 36.4695 35.2436 36.6205 34.9176 36.7575C34.6906 36.8525 34.1616 36.6495 33.4876 36.2125C32.9006 35.8306 32.2136 35.3896 31.9606 35.2316C31.5316 34.9636 31.5186 34.9026 31.7746 34.2786C32.0246 33.6716 32.3326 33.4006 32.8336 33.4036ZM23.4897 34.2066C19.7178 34.2116 16.0878 35.6256 13.3318 38.1615C14.0898 38.4635 14.6478 38.6945 15.1108 38.8975C17.4678 36.9785 20.4307 35.9275 23.4897 35.9255C26.6417 35.9315 29.6856 37.0505 32.0696 39.0795C32.5156 38.8775 33.0876 38.6415 33.8376 38.3415C31.0626 35.6956 27.3537 34.2126 23.4897 34.2066ZM23.4897 36.4375C21.4007 36.4405 19.3438 36.9535 17.5058 37.9315L20.2087 43.7845H26.5327L29.5446 37.9605C27.6877 36.9615 25.6057 36.4375 23.4897 36.4375ZM16.1328 38.7805C15.9618 38.8955 15.7938 39.0135 15.6288 39.1365C16.6878 39.6555 16.7358 39.9335 16.4858 40.5305C16.1218 41.4035 15.6448 41.4395 13.9358 40.7455C13.8418 40.8545 13.7498 40.9645 13.6598 41.0755C15.5708 41.8775 15.8178 42.1295 15.4818 42.9335C15.1108 43.8224 14.5448 43.8355 12.5468 42.9995C12.4758 42.9695 12.4508 42.9665 12.3848 42.9385C12.3278 43.0515 12.2718 43.1645 12.2188 43.2785C12.3638 43.3435 12.4648 43.4005 12.6208 43.4665C12.9188 43.5905 13.1078 43.6825 13.3298 43.7845H18.4428L16.1328 38.7805ZM30.9036 38.8215L28.3376 43.7845H34.2556C34.4236 43.7105 34.5376 43.6515 34.7416 43.5655C34.7946 43.5445 34.8256 43.5255 34.8766 43.5035C34.8196 43.3825 34.7616 43.2615 34.7006 43.1425C32.8126 43.9205 32.2436 43.9015 31.8806 43.0325C31.5606 42.2675 31.8126 41.9915 33.4836 41.2745C33.3916 41.1585 33.2976 41.0445 33.2006 40.9315C31.6936 41.5185 31.2236 41.4595 30.8766 40.6305C30.6426 40.0705 30.6846 39.7845 31.5736 39.3195C31.3566 39.1465 31.1326 38.9805 30.9036 38.8215ZM12.0388 40.0915C11.9468 40.0795 11.8919 40.0875 11.8809 40.1145C11.8429 40.2065 12.3918 40.4985 13.1678 40.8475C13.2518 40.7485 13.3378 40.6505 13.4258 40.5545C12.8028 40.3055 12.2748 40.1215 12.0388 40.0915ZM35.3236 40.1905C35.0566 40.2255 34.4626 40.4265 33.7126 40.7375C33.7966 40.8435 33.8786 40.9505 33.9586 41.0585C34.8946 40.6545 35.5246 40.3165 35.4816 40.2145C35.4706 40.1865 35.4156 40.1795 35.3236 40.1905ZM10.8869 42.4315C10.8129 42.4275 10.7769 42.4425 10.7829 42.4795C10.7969 42.5655 11.2119 42.7955 11.7399 43.0545C11.7939 42.9555 11.8479 42.8565 11.9039 42.7595C11.4519 42.5885 11.0369 42.4395 10.8869 42.4315ZM36.4765 42.5305C36.2945 42.5405 35.7976 42.7175 35.1816 42.9625C35.2356 43.0695 35.2886 43.1775 35.3396 43.2865C36.0165 42.9715 36.5635 42.6785 36.5795 42.5795C36.5855 42.5425 36.5505 42.5265 36.4765 42.5305Z" fill="#333333"/>
</svg>

<?xml version="1.0" encoding="UTF-8" standalone="no"?>
<!-- Created with Inkscape (http://www.inkscape.org/) -->
<svg id="svg8" xmlns:rdf="http://www.w3.org/1999/02/22-rdf-syntax-ns#" xmlns="http://www.w3.org/2000/svg" xmlns:osb="http://www.openswatchbook.org/uri/2009/osb" height="48" width="48" version="1.1" xmlns:cc="http://creativecommons.org/ns#" viewBox="0 0 12.7 12.7" xmlns:dc="http://purl.org/dc/elements/1.1/">
 <title id="title4753">UIO-icon</title>
 <metadata id="metadata5">
  <rdf:RDF>
   <cc:Work rdf:about="">
    <dc:format>image/svg+xml</dc:format>
    <dc:type rdf:resource="http://purl.org/dc/dcmitype/StillImage"/>
    <dc:title>UIO-icon</dc:title>
    <dc:creator>
     <cc:Agent>
      <dc:title>Joaquín Urbano</dc:title>
     </cc:Agent>
    </dc:creator>
    <dc:rights>
     <cc:Agent>
      <dc:title>GPL</dc:title>
     </cc:Agent>
    </dc:rights>
   </cc:Work>
  </rdf:RDF>
 </metadata>
 <g id="layer1" fill="#333" transform="translate(0,-284.3)">
  <path id="rect2883" d="m0 0v48h48v-48h-48zm23.92 3.7012c0.537-0.0001 0.974 0.2273 0.975 0.5078 0 0.0113-0.003 0.0198-0.004 0.0273 1.492 0.1778 2.821 0.7921 3.83 1.7949 0.973 0.9675 1.58 2.3045 1.728 3.8086 0.044 0.4442 0.037 3.0492-0.008 3.0492-0.019 0-0.115-0.048-0.308-0.086-0.81-0.195-2.045-0.464-3.529-0.551-0.822-0.048-3.196-0.092-3.975-0.045-1.746-0.013-3.935 0.387-4.733 0.584-0.191 0.06-0.288 0.096-0.306 0.096-0.024 0-0.069-0.658-0.069-1.571 0-0.907 0.011-1.3259 0.041-1.5875 0.192-1.6393 0.888-3.0073 2.03-3.9902 0.933-0.8038 2.087-1.3068 3.361-1.4844-0.002-0.0128-0.002-0.0278-0.002-0.043 0.001-0.2803 0.435-0.5073 0.971-0.5078l-0.002-0.0019zm0.055 9.0038h0.002c0.961 0 1.929 0.019 2.503 0.061 1.867 0.136 3.556 0.449 4.288 0.793 0.169 0.079 0.337 0.233 0.41 0.373 0.026 0.05 0.24 0.862 0.476 1.804 0.474 1.89 0.477 1.912 0.317 2.186-0.157 0.268-0.391 0.401-0.701 0.402-0.097 0.001-0.168-0.014-0.286-0.06 0.014 1.461 0.031 2.923 0.041 4.384 0 2.074-0.798 4.122-2.361 5.1-1.738 1.088-3.349 2.226-4.609 2.223-1.84-0.058-2.877-0.923-4.967-2.239-1.477-0.929-1.992-2.999-1.992-5.084v-4.421c-0.186 0.074-0.338 0.114-0.483 0.091-0.37-0.054-0.677-0.407-0.677-0.777 0-0.189 0.846-3.512 0.931-3.658 0.131-0.225 0.422-0.379 1.039-0.555 0.901-0.256 2.11-0.444 3.612-0.56 0.543-0.044 1.495-0.063 2.457-0.063zm0.023 4.037c-0.526 0-1.049 0.007-1.35 0.029-1.902 0.138-3.726 0.578-5.041 1.194l0.008 4.496c0.004 1.885 0.581 4.208 1.916 5.049 1.89 1.19 2.868 1.888 4.531 1.935 1.14 0.004 2.906-1.216 4.434-2.244 1.414-0.884 2.012-2.771 2.012-4.646-0.009-1.466-0.014-2.99-0.028-4.455-1.385-0.653-3.212-1.193-5.121-1.329-0.307-0.022-0.835-0.029-1.361-0.029zm-2.951 1.973c0.439 0 0.795 0.356 0.795 0.795s-0.356 0.795-0.795 0.795-0.795-0.356-0.795-0.795 0.356-0.795 0.795-0.795zm5.969 0c0.439 0 0.794 0.356 0.795 0.795-0.001 0.439-0.356 0.795-0.795 0.795s-0.795-0.356-0.795-0.795 0.356-0.795 0.795-0.795zm-3.036 3.67h0.051c0.398 0 0.72 0.066 0.717 0.148-0.002 0.081-0.322 0.147-0.717 0.147-0.394 0-0.715-0.066-0.717-0.147-0.004-0.078 0.288-0.144 0.666-0.148zm0.036 2.549h0.195c1.528 0 2.764 0.045 2.754 0.101-0.019 0.055-1.246 0.1-2.754 0.1-1.509 0-2.737-0.045-2.756-0.1-0.013-0.053 1.109-0.098 2.561-0.101zm-5.256 4.724l3.127 3.129 0.97 0.969c0.211-0.012 0.422-0.019 0.633-0.022 0.062 0 0.123 0.009 0.184 0.01 0.402 0.007 0.804 0.029 1.205 0.067 0.066 0.006 0.133 0.004 0.199 0.011l4.162-4.162c0.229 0.064 0.45 0.139 0.674 0.209l-4.055 4.061c0.355 0.057 0.707 0.126 1.057 0.207l3.811-3.813 0.002 0.002 0.136-0.138c2.739 0.978 5.22 2.333 8.375 3.429 2.545 0.751 2.545 2.867 2.545 4.02v5.324 1.338h-3.154-5.416-5.143-0.578l2.986-5.774c-0.162-0.102-0.327-0.201-0.494-0.296l-3.14 6.07h-0.578-5.823-0.564l-2.824-6.113c-0.169 0.094-0.335 0.192-0.498 0.294l2.687 5.819h-0.566-4.405-5.4566-2.6036v-1.338-5.324c0-1.153-0.0001-3.269 2.545-4.02 3.1542-1.096 5.6332-2.452 8.3712-3.431l0.135 0.136 0.002-0.002 3.636 3.643c0.105-0.017 0.21-0.024 0.315-0.039 0.268-0.045 0.537-0.083 0.806-0.113l-3.939-3.944c0.224-0.07 0.445-0.145 0.674-0.209zm-1.762 1.119l-7.9199 3.272c-1.1917 0.396-2.0719 1.166-2.3183 2.695l-0.0293 7.041h1.2578c-0.2161-0.162-0.33-0.311-0.4102-0.527-0.486-1.309 0.7803-4.845 2.0879-5.832l0.629-0.473 2.557 1.018c2.065-1.955 4.644-3.304 7.445-3.897l-3.299-3.297zm13.988 0.006l-3.476 3.485c2.57 0.694 4.914 2.031 6.802 3.882l2.758-1.097 0.627 0.472c1.308 0.987 2.574 4.524 2.088 5.832-0.064 0.172-0.151 0.302-0.281 0.428h1.766l-0.004-6.676c-0.19-1.213-0.446-2.375-2.127-2.99-2.754-0.968-5.435-2.224-8.153-3.336zm-16.457 2.52c0.501-0.003 0.81 0.269 1.059 0.877 0.256 0.624 0.244 0.685-0.186 0.953-0.252 0.158-0.939 0.599-1.527 0.98-0.673 0.437-1.203 0.64-1.43 0.545-0.326-0.136-0.302-0.288 0.254-1.617 0.57-1.363 0.658-1.479 1.26-1.646 0.214-0.06 0.403-0.091 0.57-0.092zm18.305 0.101c0.167 0.001 0.356 0.031 0.57 0.09 0.603 0.167 0.69 0.283 1.26 1.647 0.556 1.329 0.58 1.48 0.254 1.617-0.227 0.095-0.756-0.108-1.43-0.545-0.587-0.382-1.274-0.823-1.527-0.981-0.429-0.268-0.442-0.329-0.186-0.953 0.25-0.607 0.558-0.878 1.059-0.875zm-9.344 0.803c-3.772 0.005-7.402 1.419-10.158 3.955 0.758 0.302 1.316 0.533 1.779 0.736 2.357-1.919 5.32-2.97 8.379-2.972 3.152 0.006 6.196 1.125 8.58 3.154 0.446-0.202 1.018-0.438 1.768-0.738-2.775-2.646-6.484-4.129-10.348-4.135zm0 2.231c-2.089 0.003-4.146 0.516-5.984 1.494l2.703 5.853h6.324l3.012-5.824c-1.857-0.999-3.939-1.523-6.055-1.523zm-7.357 2.343c-0.171 0.115-0.339 0.233-0.504 0.356 1.059 0.519 1.107 0.797 0.857 1.394-0.364 0.873-0.841 0.909-2.55 0.215-0.094 0.109-0.186 0.219-0.276 0.33 1.911 0.802 2.158 1.054 1.822 1.858-0.371 0.889-0.937 0.902-2.935 0.066-0.071-0.03-0.096-0.033-0.162-0.061-0.057 0.113-0.113 0.226-0.166 0.34 0.145 0.065 0.246 0.122 0.402 0.188 0.298 0.124 0.487 0.216 0.709 0.318h5.113l-2.31-5.004zm14.771 0.041l-2.566 4.963h5.918c0.168-0.074 0.282-0.133 0.486-0.219 0.053-0.021 0.084-0.04 0.135-0.062-0.057-0.121-0.115-0.242-0.176-0.361-1.888 0.778-2.457 0.759-2.82-0.11-0.32-0.765-0.068-1.041 1.603-1.758-0.092-0.116-0.186-0.23-0.283-0.343-1.507 0.587-1.977 0.528-2.324-0.301-0.234-0.56-0.192-0.846 0.697-1.311-0.217-0.173-0.441-0.339-0.67-0.498zm-18.865 1.27c-0.092-0.012-0.147-0.004-0.158 0.023-0.038 0.092 0.511 0.384 1.287 0.733 0.084-0.099 0.17-0.197 0.258-0.293-0.623-0.249-1.151-0.433-1.387-0.463zm23.285 0.099c-0.267 0.035-0.861 0.236-1.611 0.547 0.084 0.106 0.166 0.213 0.246 0.321 0.936-0.404 1.566-0.742 1.523-0.844-0.011-0.028-0.066-0.035-0.158-0.024zm-24.437 2.241c-0.074-0.004-0.11 0.011-0.104 0.048 0.014 0.086 0.429 0.316 0.957 0.575 0.054-0.099 0.108-0.198 0.164-0.295-0.452-0.171-0.867-0.32-1.017-0.328zm25.59 0.099c-0.182 0.01-0.679 0.187-1.295 0.432 0.054 0.107 0.107 0.215 0.158 0.324 0.677-0.315 1.224-0.608 1.24-0.707 0.006-0.037-0.029-0.053-0.103-0.049z" fill-rule="evenodd" transform="matrix(.26458 0 0 .26458 0 284.3)"/>
 </g>
</svg>
